X: 11
T:Suisin Ban (#87)
T:White Blanket
M:4/4
L:1/8
S:O'Farrell's Pocket Companion 1804-10
K:G
G>A|B2 E2 E2 D>E|G2 AB c3 A|B2 AG E2 D>E|A2 A2 A2 GA|
B3 A GEDE|G2 G2 G2:||:B2|cBcd efgf|edcB c3 A|B2 AG E2 D>E|
A2 A2 A2 G>A|B3 A GED>E|G2 G2 G2:||

